X:207
T:Jammin' With Jimmy
C:
N:TablEdited by Kim Davis
L:1/8
Q:1/4=210
M:4/4
K:Bb
z4 zB cB |: "Bb"dB cB dB cB | dB cd2B cB | "Eb7"_dB cB dB cB | _dc =B_B zB cB | 
"G7"dB cB dB cB | dB cd4F | "C7"=EG B"F7"d _E_G Ac |1 "Bb"B4 zB cB :|2 "Bb"B6 dd | 
d2 "D7"dd d2 dd | dD zD z2 GA | "G7"=BA B2 BA Bc | =BA GF D2 cc | "C7"c2 cc c2 cc | 
c6 FG | "F7"A[GC] AC AG AB | AG FE _AB cB | "Bb"dB cB dB cB | dB cd zB cB | "Eb7"_dB cB dB cB | 
_dB =Bd z_B cB | "Bb"dB cB dB cB | "G7"dB cd z3F | "C7"=EG B"F7"d _E_G Ac | "Bb"B8 | 
 

